X:1
T:Title
%%score { ( 1 3 ) | ( 2 4 ) }
L:1/8
Q:1/4=118
M:3/4
K:Eb
V:1 treble nm="Grand Piano"
V:3 treble 
V:2 bass 
V:4 bass 
V:1
 [GB]2 [GB]2 [GB]2 | [GB]6 | G2 G2 G2 | G6 | [A,DF]2 [A,DF]2 [A,DF]2 | [A,DF]2 [EG]2 [B,FA]2 | %6
w: Wendell~P.~Loveless * *||||||
 [_Gc]6 | [GB]4 z2 | c2 d2 e2 | e6 | G2 [B,FA]2 [B,FB]2 | [C=EB]6 | [CF]2 [C=EG]2 [CFA]2 | %13
w: |||||||
 [CDA]4 [B,DB]2 | [DF]6 | [G,E]4 z2 |] %16
w: |||
V:2
 [E,E]2 [E,E]2 [E,E]2 | E2 z2 z2 | [E,B,E]2 [E,B,E]2 [E,B,E]2 | B,2 z2 z2 | B,,2 B,,2 B,,2 | %5
 z2 B,2 B,,2 | =A,4 z2 | [E,E]4 z2 | [A,A]2 [A,B,A]2 [A,CA]2 | [A,CA]6 | [E,B,E]2 D,2 _D,2 | C,6 | %12
 A,2 G,2 F,2 | B,,4 B,,2 | z2 z2 A,2 | E,4 z2 |] %16
V:3
 x6 | z2 D2 C2 | x6 | z2 C2 B,2 | x6 | x6 | z2 z2 C2 | x6 | x6 | x6 | x6 | x6 | x6 | x6 | B,4 z2 | %15
 x6 |] %16
V:4
 x6 | E,6 | x6 | [E,E]6 | x6 | B,,4 z2 | E,6 | x6 | x6 | x6 | x6 | x6 | x6 | x6 | B,,6 | x6 |] %16

